X:9
T:Gaelic Park 
C:Terence "Cuz" Teahan
B:Terry "Cuz" Teahan "Sliabh Luachra on Parade" 1980
Z:Patrick Cavanagh
M:6/8
L:1/8
R:Jig
K:G
| gdB BGA | BAG EGD | EGG GED | EAA GED | 
gdB BGA | BAG EGD | EGG GED | EAA A3 :| 
| Bde ged | aba ged | BAG ABd | edA GED | 
Bde ged | aba ged | BAG ABd | edB A3 :|| 

